X: 21006
T: Julia Delaney's
R: reel
M: 4/4
K: Ddorian
|:dcAG F2FD|~E3D ~F3A|dcAG FDDF|Ad~d2 defe|
dcAG F3D|~E3D ~F3A|dcAG FDDF|1 Ad~d2 d3c:|2 Ad~d2 d3e||
f2fe fagf|ec~c2 ac~c2|f2de fagf|edcA d3e|
fAde fagf|ecgc acgc|f2de fagf|edcA d3e|
f2fe fagf|ec~c2 ac~c2|fede fagf|edcA d2de|
fAde fagf|ec~c2 acgc|f2de fedc|Ad~d2 defe||

